packages/core/src/svgs/aimx.svg

<svg width="24" height="24" viewBox="0 0 24 24" fill="none" xmlns="http://www.w3.org/2000/svg">
<g clip-path="url(#clip0_31_5767)">
<path d="M0 0H24V24H0V0Z" fill="url(#paint0_linear_31_5767)"/>
<path d="M11.0914 5.9699L11.0357 6.01276C10.2214 6.86133 10.7314 8.7599 10.2857 10.2556C9.86569 11.6699 7.70998 12.4756 6.79712 13.3413C6.56922 13.5274 6.38217 13.7585 6.24768 14.0202C6.11318 14.2819 6.03413 14.5685 6.01547 14.8622C5.99681 15.1558 6.03895 15.4501 6.13923 15.7267C6.23952 16.0033 6.39581 16.2563 6.59831 16.4697C6.80082 16.6832 7.04519 16.8525 7.31615 16.9672C7.5871 17.0819 7.8788 17.1394 8.17301 17.1362C8.46722 17.133 8.7576 17.0692 9.026 16.9486C9.29439 16.8281 9.53502 16.6534 9.73283 16.4356H9.7414C9.90426 16.277 10.0285 16.0799 10.11 15.8656L10.1314 15.8056V15.7842C10.1657 15.6985 10.1957 15.6085 10.2171 15.5185C10.6285 14.0099 10.3714 11.447 10.7228 10.5299C11.1643 9.37704 11.9614 8.79419 12.6257 8.15561C13.0843 7.71847 13.3757 7.25561 13.3071 6.7499V6.7199C13.288 6.53681 13.2299 6.35996 13.1366 6.20129C13.0432 6.04262 12.9169 5.90584 12.7662 5.8002C12.6155 5.69456 12.4438 5.62251 12.2628 5.58894C12.0818 5.55537 11.8957 5.56106 11.7171 5.60561C11.4771 5.66561 11.2585 5.79419 11.0914 5.9699ZM15.4285 15.857C15.4285 16.198 15.564 16.5251 15.8051 16.7662C16.0462 17.0073 16.3733 17.1428 16.7143 17.1428C17.0553 17.1428 17.3823 17.0073 17.6234 16.7662C17.8645 16.5251 18 16.198 18 15.857C18 15.5161 17.8645 15.189 17.6234 14.9479C17.3823 14.7068 17.0553 14.5713 16.7143 14.5713C16.3733 14.5713 16.0462 14.7068 15.8051 14.9479C15.564 15.189 15.4285 15.5161 15.4285 15.857Z" fill="white"/>
</g>
<defs>
<linearGradient id="paint0_linear_31_5767" x1="3.52286" y1="3.91714" x2="20.6871" y2="20.7814" gradientUnits="userSpaceOnUse">
<stop stop-color="#135554"/>
<stop offset="1" stop-color="#00A790"/>
</linearGradient>
<clipPath id="clip0_31_5767">
<rect width="24" height="24" fill="white"/>
</clipPath>
</defs>
</svg>

<svg xmlns="http://www.w3.org/2000/svg" width="24" height="24" fill="none" viewBox="0 0 24 24"><g clip-path="url(#a)"><path fill="url(#b)" d="M0 0h24v24H0z"/><path fill="#fff" d="m11.091 5.97-.055.043c-.815.848-.305 2.747-.75 4.243-.42 1.414-2.576 2.22-3.489 3.085a2.138 2.138 0 1 0 2.936 3.095h.008c.163-.159.287-.356.369-.57l.021-.06v-.022q.053-.13.086-.266c.412-1.508.154-4.071.506-4.988.441-1.153 1.238-1.736 1.903-2.374.458-.438.75-.9.681-1.406v-.03a1.286 1.286 0 0 0-2.216-.75m4.338 9.887a1.286 1.286 0 1 0 2.571 0 1.286 1.286 0 0 0-2.572 0"/></g><defs><linearGradient id="b" x1="3.523" x2="20.687" y1="3.917" y2="20.781" gradientUnits="userSpaceOnUse"><stop stop-color="#135554"/><stop offset="1" stop-color="#00A790"/></linearGradient><clipPath id="a"><path fill="#fff" d="M0 0h24v24H0z"/></clipPath></defs></svg>
